svg/u1faf3_1f3fc.svg

<svg viewBox="0 0 128 128" xmlns="http://www.w3.org/2000/svg" xmlns:xlink="http://www.w3.org/1999/xlink">
  <path id="hand" d="M121.31,36.89c-0.85-0.78-3.35-0.57-10.44-1.47c-1.91-0.24-6.38-1.38-8.33-1.65 c2.87-0.6,8.19-1.88,10.8-3.35c4.79-2.7,5.5-7.85,4.22-10.11c-1.04-1.82-2.04-1.43-4.12-1.1c-2.51,0.4-8.16,1.1-10.62,1.46 c1.32-2.79,2.2-6.45,0.87-8.18c-1.46-1.9-3.61-1.79-5.36-1.26c-2.85,0.86-6.02,1.68-9.31,2.43c0.59-1.36,0.64-2.59,0.04-4.17 c-1.16-3.03-3.73-3.76-7.58-2.59c-7.09,2.3-31.94,8.56-37.64,8.34c-16.92-0.64-26.2-1.34-33.65-0.07l-2.78,2.7 c-1.75,3.4-3.09,7.84-3.33,13.73C3.57,43.6,5.95,44.67,5.95,44.67s9.54,8.48,15.85,13.06c10.39,7.54,15.04,16.95,17.54,22 c1.04,2.11,1.67,3.38,2.46,4.08c0.92,0.82,2.31,1.24,3.81,1.24c1.11,0,2.28-0.23,3.37-0.7c3.19-1.39,2.58-3.2,2.56-7.08 c0.01-4.71-6.74-20.59-7.6-23.07c-0.7-2.03,3.41-2.36,5.36-2.99c5.97-1.92,20.72-3.63,36.21-3.24c11.4,0.28,22.33,0.81,27.98-0.34 c6.36-1.29,7.93-3.78,8.5-6.06C122.45,39.67,122.56,37.96,121.31,36.89z" fill="#E0BB95"/>
  <path id="tone" d="M122.51,36.1c0.55-0.8-11.95-1.91-15.78-2.57c7.69-1.3,15.84-6.23,12.15-13.93 c-2.54-4.15-8.78-0.59-12.66-0.63c1.38-2.98,0.56-5.98-0.82-7.83c-3.23-4.13-10.58,0.88-15.32,1.26c1.86-4.8-2.14-9.6-7.88-7.24 c-7.41,2.46-33.36,9.16-39.31,8.93c-12.64,0.2-31.71-3.26-35.49,3.79c22.64-3.22,30.27,1.86,44.49-1.62 c7.53-1.41,31.57-7.79,31.57-7.79c3.18-0.87,3.22,2.57,2.05,4.95c-16.05,3.44-33.17,5.54-33.17,5.54 c8.41,3.97,40.64-2.46,47.07-4.88c1.41-0.39,3.95-1.2,3.93,2.12c-0.01,1.74-0.75,2.65-2.04,3.48c-13.76,1.97-26.62,3.13-38.04,1.91 c5.94,5.71,36.36,2.91,48.6,0.15c3.75-0.68,4.03,0.09,4.23,0.58c0.69,1.72,0.09,3.75-3,5.18c-5.54,2.56-12.91,3.53-19.93,3.96 c-14.73-2.36-27.07-4.7-27.07-4.7c8.65,9.71,39.38,10.1,51.66,12.08c1.95,0.06,1.65,2.27,1.08,3.4c-3.86,5.82-20.79,2.27-32.42,2.88 C70.9,45.18,54.9,45.72,45.7,48.94c-7.61,2.22-3.28,7.95-1.16,13.76c2.19,6.56,8.78,17.86,2.12,21.73c-3.74,1.21-3.3-0.12-4.88-3.04 C34.93,63.82,18.01,53.54,4.63,41.92c1.13,6.9,6.77,11.55,15.25,17.65c13.46,10.12,15.46,19.65,20.89,27.93 c5.51,3.98,13.23-1.39,12.72-8.3c0.01-5.04-2.92-12.22-5.28-17.98c-0.96-2.35-1.3-3.12-2.19-5.77c-0.73-2.17,0.55-2.18,2.59-2.86 c6.23-2.06,21.64-3.89,37.82-3.47c14.45-0.47,35.13,4.34,37.39-7.96C124.3,39.13,123.81,37.25,122.51,36.1z" fill="#BA8F63"/>
</svg>

<svg viewBox="0 0 128 128" xmlns="http://www.w3.org/2000/svg">
  <defs/>
  <path id="hand" d="M121.31,36.89 C120.46,36.11 117.96,36.32 110.87,35.42 C108.96,35.18 104.49,34.04 102.54,33.77 C105.41,33.17 110.73,31.89 113.34,30.42 C118.13,27.72 118.84,22.57 117.56,20.31 C116.52,18.49 115.52,18.88 113.44,19.21 C110.93,19.61 105.28,20.31 102.82,20.67 C104.14,17.88 105.02,14.22 103.69,12.49 C102.23,10.59 100.08,10.7 98.33,11.23 C95.48,12.09 92.31,12.91 89.02,13.66 C89.61,12.3 89.66,11.07 89.06,9.49 C87.9,6.46 85.33,5.73 81.48,6.9 C74.39,9.2 49.54,15.46 43.84,15.24 C26.92,14.6 17.64,13.9 10.19,15.17 L7.41,17.87 C5.66,21.27 4.32,25.71 4.08,31.6 C3.57,43.6 5.95,44.67 5.95,44.67 C5.95,44.67 15.49,53.15 21.8,57.73 C32.19,65.27 36.84,74.68 39.34,79.73 C40.38,81.84 41.01,83.11 41.8,83.81 C42.72,84.63 44.11,85.05 45.61,85.05 C46.72,85.05 47.89,84.82 48.98,84.35 C52.17,82.96 51.56,81.15 51.54,77.27 C51.55,72.56 44.8,56.68 43.94,54.2 C43.24,52.17 47.35,51.84 49.3,51.21 C55.27,49.29 70.02,47.58 85.51,47.97 C96.91,48.25 107.84,48.78 113.49,47.63 C119.85,46.34 121.42,43.85 121.99,41.57 C122.45,39.67 122.56,37.96 121.31,36.89 Z" fill="#E0BB95"/>
  <path id="tone" d="M122.51,36.1 C123.06,35.3 110.56,34.19 106.73,33.53 C114.42,32.23 122.57,27.3 118.88,19.6 C116.34,15.45 110.1,19.01 106.22,18.97 C107.6,15.99 106.78,12.99 105.4,11.14 C102.17,7.01 94.82,12.02 90.08,12.4 C91.94,7.6 87.94,2.8 82.2,5.16 C74.79,7.62 48.84,14.32 42.89,14.09 C30.25,14.29 11.18,10.83 7.4,17.88 C30.04,14.66 37.67,19.74 51.89,16.26 C59.42,14.85 83.46,8.47 83.46,8.47 C86.64,7.6 86.68,11.04 85.51,13.42 C69.46,16.86 52.34,18.96 52.34,18.96 C60.75,22.93 92.98,16.5 99.41,14.08 C100.82,13.69 103.36,12.88 103.34,16.2 C103.33,17.94 102.59,18.85 101.3,19.68 C87.54,21.65 74.68,22.81 63.26,21.59 C69.2,27.3 99.62,24.5 111.86,21.74 C115.61,21.06 115.89,21.83 116.09,22.32 C116.78,24.04 116.18,26.07 113.09,27.5 C107.55,30.06 100.18,31.03 93.16,31.46 C78.43,29.1 66.09,26.76 66.09,26.76 C74.74,36.47 105.47,36.86 117.75,38.84 C119.7,38.9 119.4,41.11 118.83,42.24 C114.97,48.06 98.04,44.51 86.41,45.12 C70.9,45.18 54.9,45.72 45.7,48.94 C38.09,51.16 42.42,56.89 44.54,62.7 C46.73,69.26 53.32,80.56 46.66,84.43 C42.92,85.64 43.36,84.31 41.78,81.39 C34.93,63.82 18.01,53.54 4.63,41.92 C5.76,48.82 11.4,53.47 19.88,59.57 C33.34,69.69 35.34,79.22 40.77,87.5 C46.28,91.48 54,86.11 53.49,79.2 C53.5,74.16 50.57,66.98 48.21,61.22 C47.25,58.87 46.91,58.1 46.02,55.45 C45.29,53.28 46.57,53.27 48.61,52.59 C54.84,50.53 70.25,48.7 86.43,49.12 C100.88,48.65 121.56,53.46 123.82,41.16 C124.3,39.13 123.81,37.25 122.51,36.1 Z" fill="#BA8F63"/>
</svg>
